assets/icons/24px/outline/airplay-24px.svg

<svg width="24" height="24" viewBox="0 0 24 24" fill="none" xmlns="http://www.w3.org/2000/svg">
<path d="M7.5 17H7C5.11438 17 4.17157 17 3.58579 16.4142C3 15.8284 3 14.8856 3 13L3.00001 7.00001C3.00001 5.1144 3.00001 4.17159 3.5858 3.5858C4.17158 3.00001 5.11439 3.00001 7 3.00001L17 3C18.8856 3 19.8284 3 20.4142 3.58579C21 4.17157 21 5.11438 21 7V13C21 14.8856 21 15.8284 20.4142 16.4142C19.8284 17 18.8856 17 17 17L16.5 17" stroke="white" stroke-width="2" stroke-linecap="round"/>
<path d="M10.5071 18.1327C11.1155 17.2636 11.4197 16.829 11.8302 16.7583C11.9426 16.739 12.0574 16.739 12.1698 16.7583C12.5803 16.829 12.8845 17.2636 13.4929 18.1327V18.1327C14.2806 19.258 14.6745 19.8207 14.5387 20.2823C14.5021 20.4067 14.4416 20.5227 14.3608 20.624C14.0605 21 13.3737 21 12 21V21C10.6263 21 9.93949 21 9.63924 20.624C9.55835 20.5227 9.49793 20.4067 9.46133 20.2823C9.3255 19.8207 9.71937 19.258 10.5071 18.1327V18.1327Z" stroke="white" stroke-width="2"/>
</svg>

<svg width="24" height="24" fill="none" xmlns="http://www.w3.org/2000/svg"><path d="M7.5 17H7c-1.886 0-2.828 0-3.414-.586C3 15.828 3 14.886 3 13V7c0-1.886 0-2.828.586-3.414C4.172 3 5.114 3 7 3h10c1.886 0 2.828 0 3.414.586C21 4.172 21 5.114 21 7v6c0 1.886 0 2.828-.586 3.414C19.828 17 18.886 17 17 17h-.5" stroke="#fff" stroke-width="2" stroke-linecap="round"/><path d="M10.507 18.133c.609-.87.913-1.304 1.323-1.375.113-.019.227-.019.34 0 .41.071.714.506 1.323 1.375.788 1.125 1.181 1.688 1.046 2.15-.037.124-.097.24-.178.341C14.06 21 13.374 21 12 21s-2.06 0-2.36-.376a1 1 0 0 1-.179-.342c-.136-.461.258-1.024 1.046-2.15z" stroke="#fff" stroke-width="2"/></svg>
